data/wix-madefor-text.svg

<svg width="114.87" height="17.64" viewBox="0 0 114.87 17.64" xmlns="http://www.w3.org/2000/svg"><path transform="translate(0 14.112) scale(.014 -.014)" d="M754 0H660L502 606L344 0H250L46 715H132L299 100L460 715H545L708 95L876 715H958Z"/><path transform="translate(14.056 14.112) scale(.014 -.014)" d="m177 678q0-24-15.5-39.5t-38.5-15.5-38.5 15.5-15.5 39.5 15.5 39.5 38.5 15.5 38.5-15.5 15.5-39.5zm-15-678h-77v492h77z"/><path transform="translate(17.514 14.112) scale(.014 -.014)" d="M100 0H9L192 255L26 492H116L241 300L368 492H456L291 255L474 0H382L241 208Z"/><path transform="translate(27.426 14.112) scale(.014 -.014)" d="M481 61H422L184 595V0H106V715H208L452 162L698 715H799V0H721V595Z"/><path transform="translate(40.096 14.112) scale(.014 -.014)" d="m220-16q-52 0-92 20t-62.5 55.5-22.5 80.5q0 75 57.5 119t154.5 44h138v4q0 62-37.5 98.5t-102.5 36.5q-85 0-144-71l-50 49q84 88 199 88 63 0 110-24.5t73-69 26-104.5v-310h-73v67q-28-38-73-60.5t-101-22.5zm11 64q58 0 101 29.5t61 78.5v85h-129q-67 0-104-25.5t-37-72.5q0-43 29.5-69t78.5-26z"/><path transform="translate(47.698 14.112) scale(.014 -.014)" d="m467 0v78q-25-43-71-68.5t-104-25.5q-69 0-122.5 34t-84.5 93-31 135q0 75 30.5 134.5t84 93.5 120.5 34q58 0 105-28t72-75v315h77v-720zm-332 246q0-57 21.5-101t59.5-69 87-25q57 0 101 32.5t62 85.5v63q0 62-21 109t-58.5 73.5-86.5 26.5q-48 0-85.5-25t-58.5-69-21-101z"/><path transform="translate(56.49 14.112) scale(.014 -.014)" d="m459 141 52-50q-39-54-91.5-80.5t-115.5-26.5q-74 0-130.5 34t-88 93.5-31.5 134.5 31.5 134.5 86 93.5 122.5 34q67 0 118.5-33t80.5-91.5 29-134.5v-30h-387q8-74 54.5-121t119.5-47q46 0 83 22t67 68zm-165 300q-62 0-105.5-44t-52.5-115h306q-7 73-46.5 116t-101.5 43z"/><path transform="translate(64.554 14.112) scale(.014 -.014)" d="m204 0h-77v426h-94v66h94v108q0 120 114 120h97v-64h-78q-30 0-43-14.5t-13-46.5v-103h134v-66h-134z"/><path transform="translate(69.51 14.112) scale(.014 -.014)" d="m300-16q-71 0-127 34t-87.5 93-31.5 135 31.5 135 87.5 93 127 34q72 0 128-34t87.5-93 31.5-135-31.5-135-87.5-93-128-34zm0 67q50 0 87 25t58 69 21 101q0 58-21 101.5t-58 68.5-87 25q-49 0-86-25t-58-68.5-21-101.5q0-57 21-101t58-69 86-25z"/><path transform="translate(77.924 14.112) scale(.014 -.014)" d="m352 500v-74h-17q-46 0-85.5-23.5t-63.5-72-24-124.5v-206h-77v492h76v-110q25 64 74 91t101 27z"/><path transform="translate(86.338 14.112) scale(.014 -.014)" d="M340 0H260V644H38V715H562V644H340Z"/><path transform="translate(94.738 14.112) scale(.014 -.014)" d="m459 141 52-50q-39-54-91.5-80.5t-115.5-26.5q-74 0-130.5 34t-88 93.5-31.5 134.5 31.5 134.5 86 93.5 122.5 34q67 0 118.5-33t80.5-91.5 29-134.5v-30h-387q8-74 54.5-121t119.5-47q46 0 83 22t67 68zm-165 300q-62 0-105.5-44t-52.5-115h306q-7 73-46.5 116t-101.5 43z"/><path transform="translate(102.8 14.112) scale(.014 -.014)" d="M100 0H9L192 255L26 492H116L241 300L368 492H456L291 255L474 0H382L241 208Z"/><path transform="translate(109.56 14.112) scale(.014 -.014)" d="m341 0h-110q-52 0-79 28.5t-27 81.5v316h-94v66h94v144h77v-144h132v-66h-132v-309q0-51 48-51h91z"/></svg>

<?xml version="1.0" encoding="utf-8" ?>
<svg baseProfile="tiny" height="100%" version="1.2" width="100%" xmlns="http://www.w3.org/2000/svg" xmlns:ev="http://www.w3.org/2001/xml-events" xmlns:xlink="http://www.w3.org/1999/xlink"><defs /><g><path d="M754 0H660L502 606L344 0H250L46 715H132L299 100L460 715H545L708 95L876 715H958Z" transform="translate(0.0, 72) scale(0.072, -0.072)" /><path d="M177 678Q177 654 161.5 638.5Q146 623 123 623Q100 623 84.5 638.5Q69 654 69 678Q69 702 84.5 717.5Q100 733 123 733Q146 733 161.5 717.5Q177 702 177 678ZM162 0H85V492H162Z" transform="translate(72.288, 72) scale(0.072, -0.072)" /><path d="M100 0H9L192 255L26 492H116L241 300L368 492H456L291 255L474 0H382L241 208Z" transform="translate(90.072, 72) scale(0.072, -0.072)" /><path d="M481 61H422L184 595V0H106V715H208L452 162L698 715H799V0H721V595Z" transform="translate(141.048, 72) scale(0.072, -0.072)" /><path d="M220 -16Q168 -16 128.0 4.0Q88 24 65.5 59.5Q43 95 43 140Q43 215 100.5 259.0Q158 303 255 303H393V307Q393 369 355.5 405.5Q318 442 253 442Q168 442 109 371L59 420Q143 508 258 508Q321 508 368.0 483.5Q415 459 441.0 414.5Q467 370 467 310V0H394V67Q366 29 321.0 6.5Q276 -16 220 -16ZM231 48Q289 48 332.0 77.5Q375 107 393 156V241H264Q197 241 160.0 215.5Q123 190 123 143Q123 100 152.5 74.0Q182 48 231 48Z" transform="translate(206.208, 72) scale(0.072, -0.072)" /><path d="M467 0V78Q442 35 396.0 9.5Q350 -16 292 -16Q223 -16 169.5 18.0Q116 52 85.0 111.0Q54 170 54 246Q54 321 84.5 380.5Q115 440 168.5 474.0Q222 508 289 508Q347 508 394.0 480.0Q441 452 466 405V720H543V0ZM135 246Q135 189 156.5 145.0Q178 101 216.0 76.0Q254 51 303 51Q360 51 404.0 83.5Q448 116 466 169V232Q466 294 445.0 341.0Q424 388 386.5 414.5Q349 441 300 441Q252 441 214.5 416.0Q177 391 156.0 347.0Q135 303 135 246Z" transform="translate(245.304, 72) scale(0.072, -0.072)" /><path d="M459 141 511 91Q472 37 419.5 10.5Q367 -16 304 -16Q230 -16 173.5 18.0Q117 52 85.5 111.5Q54 171 54 246Q54 321 85.5 380.5Q117 440 171.5 474.0Q226 508 294 508Q361 508 412.5 475.0Q464 442 493.0 383.5Q522 325 522 249V219H135Q143 145 189.5 98.0Q236 51 309 51Q355 51 392.0 73.0Q429 95 459 141ZM294 441Q232 441 188.5 397.0Q145 353 136 282H442Q435 355 395.5 398.0Q356 441 294 441Z" transform="translate(290.52, 72) scale(0.072, -0.072)" /><path d="M204 0H127V426H33V492H127V600Q127 720 241 720H338V656H260Q230 656 217.0 641.5Q204 627 204 595V492H338V426H204Z" transform="translate(331.99199999999996, 72) scale(0.072, -0.072)" /><path d="M300 -16Q229 -16 173.0 18.0Q117 52 85.5 111.0Q54 170 54 246Q54 322 85.5 381.0Q117 440 173.0 474.0Q229 508 300 508Q372 508 428.0 474.0Q484 440 515.5 381.0Q547 322 547 246Q547 170 515.5 111.0Q484 52 428.0 18.0Q372 -16 300 -16ZM300 51Q350 51 387.0 76.0Q424 101 445.0 145.0Q466 189 466 246Q466 304 445.0 347.5Q424 391 387.0 416.0Q350 441 300 441Q251 441 214.0 416.0Q177 391 156.0 347.5Q135 304 135 246Q135 189 156.0 145.0Q177 101 214.0 76.0Q251 51 300 51Z" transform="translate(357.47999999999996, 72) scale(0.072, -0.072)" /><path d="M352 500V426H335Q289 426 249.5 402.5Q210 379 186.0 330.5Q162 282 162 206V0H85V492H161V382Q186 446 235.0 473.0Q284 500 336 500Z" transform="translate(400.75199999999995, 72) scale(0.072, -0.072)" /><path d="M340 0H260V644H38V715H562V644H340Z" transform="translate(444.02399999999994, 72) scale(0.072, -0.072)" /><path d="M459 141 511 91Q472 37 419.5 10.5Q367 -16 304 -16Q230 -16 173.5 18.0Q117 52 85.5 111.5Q54 171 54 246Q54 321 85.5 380.5Q117 440 171.5 474.0Q226 508 294 508Q361 508 412.5 475.0Q464 442 493.0 383.5Q522 325 522 249V219H135Q143 145 189.5 98.0Q236 51 309 51Q355 51 392.0 73.0Q429 95 459 141ZM294 441Q232 441 188.5 397.0Q145 353 136 282H442Q435 355 395.5 398.0Q356 441 294 441Z" transform="translate(487.22399999999993, 72) scale(0.072, -0.072)" /><path d="M100 0H9L192 255L26 492H116L241 300L368 492H456L291 255L474 0H382L241 208Z" transform="translate(528.6959999999999, 72) scale(0.072, -0.072)" /><path d="M341 0H231Q179 0 152.0 28.5Q125 57 125 110V426H31V492H125V636H202V492H334V426H202V117Q202 66 250 66H341Z" transform="translate(563.4719999999999, 72) scale(0.072, -0.072)" /></g></svg>
